X:1
T:My Faith Looks Up to Thee
T:Text: Ray Palmer, 1830, alt. Tune: Lowell Mason, 1832
T:664 6664 OLIVET www.hymnary.org/text/my_faith_looks_up_to_thee
T:My Faith Looks Up to Thee
T:This hymn is in the public domain. You may freely use this score for personal and congregational worship. If you reproduce the score, please credit Hymnary.org as the source. 
T:This hymn is in the public domain. You may freely use this score for personal and congregational worship. If you reproduce the score, please credit Hymnary.org as the source. 
Z:This hymn is in the public domain. You may freely use this score for personal and congregational worship. If you reproduce the score, please credit Hymnary.org as the source.
%%score ( 1 2 ) ( 3 4 )
L:1/8
M:4/4
K:D
V:1 treble nm="SOPRANO ALTO" snm="S. A."
V:2 treble 
V:3 bass nm="TENOR BASS" snm="T. B."
V:4 bass 
V:1
"^1""^2""^3""^4" D4 F2 A2 | A3 G F4 | E4 E2 G2 | G3 F E4 | F4 E2 B2 | A8 | A4 F2 G2 | A3 B A4 | %8
w: My faith looks|up to thee,|thou Lamb of|Cal- va- ry,|Sav- ior di-|vine!|Now hear me|while I pray,|
w: May thy rich|grace im- part|strength to my|faint- ing heart,|my zeal in-|spire.|As thou hast|died for me,|
w: While life's dark|maze I tread|and griefs a-|round me spread,|be thou my|guide.|Bid dark- ness|turn to day,|
w: When life's swift|race is run,|death's cold work|al- most done,|be near to|me.|Blest Sav- ior,|then in love|
 A4 F2 G2 |1 A3 B A4 | d4 c2 B2 | A3 G F2 D2 | E4 A4 | D8 |] %14
w: take all my|guilt a- way.|O let me|from this day be|whol- ly|thine!|
w: O may my|love to thee|pure, warm, and|change- less be, a|liv- ing|fire!|
w: wipe sor- row's|tears a- way,|nor let me|ev- er stray from|thee a-|side.|
w: fear and dis-|trust re- move.|O bear me|safe a- bove, re-|deemed and|free!|
V:2
 D4 D2 F2 | E3 E D4 | C4 C2 E2 | E3 D C4 | D4 C2 D2 | C8 | D4 D2 D2 | D3 D D4 | F4 D2 C2 |1 %9
 D3 D D4 | D4 D2 D2 | D3 C D2 D2 | D4 C4 | D8 |] %14
V:3
 F,4 A,2 A,2 | A,3 A, A,4 | A,4 A,2 A,2 | A,3 A, A,4 | A,4 A,2 ^G,2 | A,8 | F,4 D,2 E,2 | %7
 F,3 G, F,4 | A,4 A,2 G,2 |1 F,3 G, F,4 | F,4 G,2 G,2 | A,3 A, A,2 A,2 | B,4 (A,2 G,2) | F,8 |] %14
V:4
 D,4 D,2 D,2 | C,3 C, D,4 | A,,4 A,,2 C,2 | C,3 D, A,,4 | D,4 E,2 E,2 | A,,8 | D,4 D,2 D,2 | %7
 D,3 D, D,4 | D,4 F,2 E,2 |1 D,3 G,, (D,2 C,2) | (B,,2 A,,2) G,,2 G,2 | F,3 E, D,2 F,,2 | %12
 G,,4 A,,4 | D,8 |] %14

